X: 1
T:Bengullion  "	"
M:6/8
L:1/8
Q:80
C:R Fleming
S:March
K:HP
|: e2|
{g}A3/2e/2{A}e{gef}e2d|
{g}e/2g3/2f{gef}e2d|  !
{gBd}B3/2{g}A/2{d}G{gGd}G2d|
{g}B/2{d}A3/2{d}B{Gdc}d2e|
{g}A3/2e/2{A}e{gef}e3|  !
{g}e/2g3/2f{gef}e2d|
{gBd}B3/2{g}A/2{d}G{g}B/2d3/2e|
{g}A3{GAG}A2:| |:  !
{d}B|
{g}A3/2a/2{g}a{g}a2g|
{a}e/2a3/2g{aef}e2d|
{gBd}B3/2{g}A/2{d}G{gGd}G2d|  !
{g}B/2{d}A3/2{d}B{Gdc}d2e|1
{g}A3/2a/2{g}a{g}a3|
e/2a3/2g{aef}e2d|  !
{gBd}B3/2{g}A/2{d}G{g}B/2d3/2e|
{g}A3{GAG}A2:|2
{g}A3/2e/2{A}e{gef}e2d|  !
{g}e/2g3/2f{gef}e2d|
{gBd}B3/2{g}A/2{d}G{g}B/2d3/2e|
{g}A3{GAG}A2|] |:  !
e|
{g}A3/2e/2{g}A{g}B3/2e/2{A}e|
{g}e/2g3/2f{g}e3/2g/2{a}e|
{gde}d3/2B/2{d}G{gGd}G2d|  !
{g}B/2{d}A3/2{d}B{Gdc}d2e|
{g}A3/2e/2{g}A{g}B3/2e/2{A}e|
{g}e/2g3/2f{gef}e2d|  !
{gBd}B3/2{g}A/2{d}G{g}B/2d3/2e|
{g}A3{GAG}A2:| |:
{d}B|  !
{g}A3/2a/2{g}ae/2a3/2{g}a|
g3/2e/2d{gef}e2g|
{aBd}B3/2{g}A/2{d}G{gGd}G2d|  !
{g}B/2{d}A3/2{d}B{Gdc}d2e|1
{g}A3/2a/2{g}ae/2a3/2e|
{gf}g3/2a/2g{aef}e2d|  !
{gBd}B3/2{g}A/2{d}G{g}B/2d3/2e|
{g}A3{GAG}A2:|2
{g}A3/2e/2{g}A{g}B3/2e/2{A}e|  !
{g}e/2g3/2f{g}e3/2d/2{G}d|
{gBd}B3/2{g}A/2{d}G{g}B/2d3/2e|
{g}A3{GAG}A2|]  !
